img/stars.svg

<svg fill="none" height="800" viewBox="0 0 24 24" width="800" xmlns="http://www.w3.org/2000/svg">
    <g fill="#ffffff">
        <path d="m10.0802 7.89712c1.0766-1.93141 1.615-2.89712 2.4198-2.89712s1.3432.96571 2.4198 2.89712l.2786.49968c.3059.54884.4589.82327.6974 1.00434.2385.18106.5356.24828 1.1297.3827l.5409.12238c2.0907.47308 3.1361.70958 3.3848 1.50938.2487.7997-.464 1.6331-1.8893 3.2998l-.3687.4312c-.4051.4737-.6076.7105-.6987 1.0035-.0911.2929-.0605.6089.0008 1.2408l.0557.5753c.2155 2.2238.3232 3.3357-.3279 3.83s-1.6299.0436-3.5874-.8577l-.5065-.2332c-.5562-.2561-.8344-.3842-1.1292-.3842s-.573.1281-1.1292.3842l-.5065.2332c-1.95753.9013-2.9363 1.352-3.58742.8577-.65113-.4943-.54338-1.6062-.32789-3.83l.05575-.5753c.06123-.6319.09185-.9479.00074-1.2408-.0911-.293-.29362-.5298-.69865-1.0035l-.36875-.4312c-1.42532-1.6667-2.13798-2.5001-1.88927-3.2998.2487-.7998 1.29407-1.0363 3.3848-1.50938l.54089-.12238c.59412-.13442.89118-.20164 1.1297-.3827.23852-.18107.3915-.45549.69745-1.00434z"/>
        <path d="m4.86752 2.50058c.02999-.10578.21776-.10642.24846-.00084.1402.48211.40018 1.19473.7933 1.58521.39313.39048 1.10748.64563 1.59053.78257.10579.02999.10642.21776.00084.24846-.48211.1402-1.19473.40018-1.5852.7933-.39048.39313-.64564 1.10748-.78258 1.59053-.02999.10579-.21776.10642-.24846.00084-.1402-.48211-.40017-1.19473-.7933-1.5852-.39313-.39048-1.10748-.64564-1.59053-.78258-.10578-.02999-.10642-.21776-.00084-.24846.48211-.1402 1.19473-.40017 1.58521-.7933s.64563-1.10748.78257-1.59053z"/>
        <path clip-rule="evenodd"
              d="m19 3.25c.4142 0 .75.33579.75.75v.25h.25c.4142 0 .75.33579.75.75s-.3358.75-.75.75h-.25v.25c0 .41421-.3358.75-.75.75s-.75-.33579-.75-.75v-.25h-.25c-.4142 0-.75-.33579-.75-.75s.3358-.75.75-.75h.25v-.25c0-.41421.3358-.75.75-.75z"
              fill-rule="evenodd"/>
    </g>
</svg>

<?xml version="1.0" encoding="utf-8"?><!-- Uploaded to: SVG Repo, www.svgrepo.com, Generator: SVG Repo Mixer Tools -->
<svg width="800px" height="800px" viewBox="0 0 24 24" fill="none" xmlns="http://www.w3.org/2000/svg">
    <path d="M10.0802 7.89712C11.1568 5.96571 11.6952 5 12.5 5C13.3048 5 13.8432 5.96571 14.9198 7.89712L15.1984 8.3968C15.5043 8.94564 15.6573 9.22007 15.8958 9.40114C16.1343 9.5822 16.4314 9.64942 17.0255 9.78384L17.5664 9.90622C19.6571 10.3793 20.7025 10.6158 20.9512 11.4156C21.1999 12.2153 20.4872 13.0487 19.0619 14.7154L18.6932 15.1466C18.2881 15.6203 18.0856 15.8571 17.9945 16.1501C17.9034 16.443 17.934 16.759 17.9953 17.3909L18.051 17.9662C18.2665 20.19 18.3742 21.3019 17.7231 21.7962C17.072 22.2905 16.0932 21.8398 14.1357 20.9385L13.6292 20.7053C13.073 20.4492 12.7948 20.3211 12.5 20.3211C12.2052 20.3211 11.927 20.4492 11.3708 20.7053L10.8643 20.9385C8.90677 21.8398 7.928 22.2905 7.27688 21.7962C6.62575 21.3019 6.7335 20.19 6.94899 17.9662L7.00474 17.3909C7.06597 16.759 7.09659 16.443 7.00548 16.1501C6.91438 15.8571 6.71186 15.6203 6.30683 15.1466L5.93808 14.7154C4.51276 13.0487 3.8001 12.2153 4.04881 11.4156C4.29751 10.6158 5.34288 10.3793 7.43361 9.90622L7.9745 9.78384C8.56862 9.64942 8.86568 9.5822 9.1042 9.40114C9.34272 9.22007 9.4957 8.94565 9.80165 8.3968L10.0802 7.89712Z"
          fill="#FFFFFF"/>
    <path d="M4.86752 2.50058C4.89751 2.3948 5.08528 2.39416 5.11598 2.49974C5.25618 2.98185 5.51616 3.69447 5.90928 4.08495C6.30241 4.47543 7.01676 4.73058 7.49981 4.86752C7.6056 4.89751 7.60623 5.08528 7.50065 5.11598C7.01854 5.25618 6.30592 5.51616 5.91545 5.90928C5.52497 6.30241 5.26981 7.01676 5.13287 7.49981C5.10288 7.6056 4.91511 7.60623 4.88441 7.50065C4.74421 7.01854 4.48424 6.30592 4.09111 5.91545C3.69798 5.52497 2.98363 5.26981 2.50058 5.13287C2.3948 5.10288 2.39416 4.91511 2.49974 4.88441C2.98185 4.74421 3.69447 4.48424 4.08495 4.09111C4.47543 3.69798 4.73058 2.98363 4.86752 2.50058Z"
          fill="#FFFFFF"/>
    <path fill-rule="evenodd" clip-rule="evenodd"
          d="M19 3.25C19.4142 3.25 19.75 3.58579 19.75 4V4.25H20C20.4142 4.25 20.75 4.58579 20.75 5C20.75 5.41421 20.4142 5.75 20 5.75H19.75V6C19.75 6.41421 19.4142 6.75 19 6.75C18.5858 6.75 18.25 6.41421 18.25 6V5.75H18C17.5858 5.75 17.25 5.41421 17.25 5C17.25 4.58579 17.5858 4.25 18 4.25H18.25V4C18.25 3.58579 18.5858 3.25 19 3.25Z"
          fill="#FFFFFF"/>
</svg>
